X:1
T:Duncan R. Dawson's (Towie)
T:Duncan R. Dawson's (Towie)
T:Alexander Walker
C:Alexander Walker
L:1/8
M:4/4
K:A
V:1 treble 
V:1
 C | E>FE<C E>FA>F | E>FE<C (B,2 B,>)C | E>FE<G A>Bc>B | A>FE<C (B,2 B,) :| f | e<ca>c b<ca>c | %7
 e>c{c}a>c{c} (B2 B>)c | e>ca>c b>ca>c | d<f{f}e>c (A2 A>)d | c<ee>a c<ee>a | d<bc<a{c} (B2 B>)d | %12
 (3cec (3BcB (3AcA E>C | D<FE>C (A,2 A,) || %14

